X:1
T:Cambell's Allemand
M:2/4
L:1/8
S:Aird, Vol. II (1782)
Z:AK/Fiddler's Companion
K:D
d2 fa | d2 gb | afed | ce AG | FA dF | Gceg | fedc | dDFA | d2 (f/g/a) |
d2 (g/a/b) | afed | e2 AG | F2 (f/g/a/)A/ | Bgbg | fedc | d2 D2 :|
|: d2 d'd | c'dbd | ad e/d/c/e/ | gecA | Gbd/G | Fad'f | gedc | dDFA |
d2 d'd | c'dbd | ad e/d/c/e/ | gecA | G2 (b/c'/d'/)G/ | F2 a/b/c'/f/ | gedc | d2D2 :|

